icon/lg/atomic.svg

<?xml version="1.0" encoding="UTF-8"?>
<svg viewBox="0 0 512 99" version="1.1" xmlns="http://www.w3.org/2000/svg" xmlns:xlink="http://www.w3.org/1999/xlink" preserveAspectRatio="xMidYMid" height="1em" width="1em">
  <g>
    <path d="M277.452907,29.6203838 C296.269014,29.6203838 310.478265,43.9055092 310.478265,63.8244874 C310.478265,83.6159794 296.269014,98.02864 277.452907,98.02864 C258.63729,98.02864 244.428039,83.6159794 244.428039,63.8244874 C244.428039,43.9055092 258.63729,29.6203838 277.452907,29.6203838 Z M482.432261,29.6203838 C499.362787,29.6203838 508.969593,40.4981807 511.621268,51.3758306 L496.583675,56.6164416 C495.069132,51.2449624 491.147987,45.7419777 482.811631,45.7419777 C474.217461,45.7419777 467.017257,52.1630006 467.017257,63.8244874 C467.017257,75.4894053 474.346858,82.0416395 482.938088,82.0416395 C491.530299,82.0416395 495.828854,76.1452169 497.21596,71.1638916 L511.998678,76.2765752 C509.219566,87.0200239 499.490224,98.02864 482.938088,98.02864 C464.614575,98.02864 450.211227,83.6159794 450.211227,63.8244874 C450.211227,43.9055092 464.361171,29.6203838 482.432261,29.6203838 Z M167.961779,29.6192075 C187.809148,29.6192075 195.186293,41.1750195 195.186293,54.1730778 L195.186293,85.9495512 C195.186293,89.3633985 195.568114,93.9599614 195.950426,96.1910932 L180.429552,96.1910932 C180.04724,94.482454 179.792856,90.9372483 179.792856,88.4433997 C176.611826,93.5658862 170.629629,98.0276597 161.342886,98.0276597 C147.983543,98.0276597 139.842754,88.7061165 139.842754,78.5959328 C139.842754,67.0403169 148.11098,60.6066973 158.544168,59.0328476 L173.941036,56.6669264 C177.500456,56.1414929 178.646411,54.3049263 178.646411,52.0737945 C178.646411,47.4770356 175.210997,43.668868 168.085786,43.668868 C160.70619,43.668868 156.63408,48.5284417 156.127762,54.1730778 L141.113206,50.891079 C142.131723,40.7807483 151.164082,29.6192075 167.961779,29.6192075 Z M228.171459,12.694563 L228.171459,31.7939728 L240.694618,31.7939728 L240.694618,47.1222699 L228.171459,47.1222699 L228.171459,73.8841863 C228.171459,79.472799 230.700598,81.2897598 235.509393,81.2897598 C237.532214,81.2897598 239.808439,81.0299839 240.694618,80.7697179 L240.694618,95.060823 C239.175174,95.711243 236.139227,96.618498 231.206916,96.618498 C219.060188,96.618498 211.472281,89.2158654 211.472281,76.8750401 L211.472281,47.1222699 L200.212221,47.1222699 L200.212221,31.7939728 L203.374625,31.7939728 C209.952837,31.7939728 212.988784,27.3759201 212.988784,21.6607034 L212.988784,12.694563 L228.171459,12.694563 Z M392.079264,29.9572592 C403.781433,29.9572592 414.971402,37.1631974 414.971402,54.4568707 L414.971402,96.2499104 L398.380545,96.2499104 L398.380545,57.9942341 C398.380545,51.0503755 395.036788,45.811627 387.190576,45.811627 C379.859014,45.811627 375.484976,51.5753189 375.484976,58.5186873 L375.484976,96.2499104 L358.511318,96.2499104 L358.511318,57.9942341 C358.511318,51.0503755 355.038653,45.811627 347.317917,45.811627 C339.860879,45.811627 335.486841,51.4439605 335.486841,58.5186873 L335.486841,96.2499104 L318.381334,96.2499104 L318.381334,31.7931396 L334.717806,31.7931396 L334.717806,39.6515074 C338.190471,33.3635094 346.291067,29.9572592 353.236397,29.9572592 C361.852134,29.9572592 368.800403,33.7569473 372.012312,40.7006099 C377.029908,32.8422421 383.717912,29.9572592 392.079264,29.9572592 Z M441.780274,31.7358909 L441.780274,95.9126918 L425.445272,95.9126918 L425.445272,31.7358909 L441.780274,31.7358909 Z M178.904716,66.9971843 L165.1562,69.2910544 C160.943419,69.9659816 157.598192,72.5264897 157.598192,77.6479959 C157.598192,81.5578681 160.199382,85.3334412 165.528218,85.3334412 C172.463254,85.3334412 178.904716,81.6931477 178.904716,69.9659816 L178.904716,66.9971843 Z M277.452907,45.1357196 C269.14498,45.1357196 261.473258,51.2910358 261.473258,63.470604 C261.473258,75.5217547 269.14498,81.8083313 277.452907,81.8083313 C285.764755,81.8083313 293.433045,75.6531131 293.433045,63.470604 C293.433045,51.2910358 285.764755,45.1357196 277.452907,45.1357196 Z M433.612528,1.35607003e-06 C439.391806,1.35607003e-06 443.910927,4.77192765 443.910927,10.7093851 C443.910927,16.3853413 439.391806,21.1572774 433.612528,21.1572774 C427.959216,21.1572774 423.31462,16.3853413 423.31462,10.7093851 C423.31462,4.77192765 427.959216,1.35607003e-06 433.612528,1.35607003e-06 Z" fill="#000000"/>
    <g>
      <path d="M74.2571839,96.4342042 L14.6137664,96.4342042 C6.54282346,96.4342042 0,89.8912827 0,81.8205849 C0,73.7484166 6.5415981,67.2035346 14.6137664,67.1991233 L48.4095316,67.1824562 C53.9691769,67.1795176 59.1063677,70.1463543 61.8825387,74.9629915 L74.2571839,96.4342042 Z" fill="#1E6EFA"/>
      <path d="M11.0713054,58.9622669 L40.8930877,7.30931074 C44.9285837,0.319668335 53.8662468,-2.0751669 60.8556887,1.96031435 C67.8466011,5.99641318 70.2438915,14.9340763 66.2114834,21.9267532 L49.328011,51.2033002 C46.5508106,56.0194472 41.4125415,58.9848135 35.8530923,58.9808963 L11.0713054,58.9622669 Z" fill="#FF3C5A"/>
      <path d="M75.2075716,22.9778652 L105.029354,74.6306744 C109.065193,81.6206065 106.670353,90.5578775 99.6804212,94.5937165 C92.689999,98.6295556 83.7507674,96.2366765 79.7114974,89.2482148 L62.7986164,59.9886268 C60.0165636,55.1754206 60.0175439,49.2427274 62.8005769,44.4301584 L75.2075716,22.9778652 Z" fill="#FFC5CE"/>
    </g>
  </g>
</svg>

<svg width="512" height="99" xmlns="http://www.w3.org/2000/svg" preserveAspectRatio="xMidYMid"><path d="M277.453 29.62c18.816 0 33.025 14.286 33.025 34.204 0 19.792-14.209 34.205-33.025 34.205s-33.025-14.413-33.025-34.205c0-19.918 14.21-34.204 33.025-34.204Zm204.98 0c16.93 0 26.537 10.878 29.188 21.756l-15.037 5.24c-1.515-5.371-5.436-10.874-13.772-10.874-8.595 0-15.795 6.421-15.795 18.082 0 11.665 7.33 18.218 15.921 18.218 8.592 0 12.89-5.897 14.278-10.878l14.783 5.113c-2.78 10.743-12.509 21.752-29.06 21.752-18.324 0-32.728-14.413-32.728-34.205 0-19.918 14.15-34.204 32.221-34.204Zm-314.471 0c19.847 0 27.224 11.555 27.224 24.553V85.95c0 3.413.382 8.01.764 10.241h-15.52c-.383-1.709-.637-5.254-.637-7.748-3.181 5.123-9.163 9.585-18.45 9.585-13.36 0-21.5-9.322-21.5-19.432 0-11.556 8.268-17.99 18.701-19.563l15.397-2.366c3.56-.526 4.705-2.362 4.705-4.593 0-4.597-3.435-8.405-10.56-8.405-7.38 0-11.452 4.86-11.958 10.504l-15.015-3.282c1.019-10.11 10.051-21.272 26.849-21.272Zm60.21-16.925v19.099h12.523v15.328H228.17v26.762c0 5.589 2.53 7.406 7.338 7.406 2.023 0 4.3-.26 5.186-.52v14.29c-1.52.651-4.556 1.558-9.488 1.558-12.147 0-19.735-7.402-19.735-19.743V47.122h-11.26V31.794h3.163c6.578 0 9.614-4.418 9.614-10.133v-8.966h15.182Zm163.907 17.262c11.702 0 22.892 7.206 22.892 24.5V96.25h-16.59V57.994c0-6.944-3.344-12.182-11.19-12.182-7.332 0-11.706 5.763-11.706 12.707v37.73h-16.974V57.995c0-6.944-3.472-12.182-11.193-12.182-7.457 0-11.831 5.632-11.831 12.707v37.73H318.38V31.794h16.337v7.859c3.472-6.288 11.573-9.695 18.518-9.695 8.616 0 15.564 3.8 18.776 10.744 5.018-7.859 11.706-10.744 20.067-10.744Zm49.701 1.779v64.177h-16.335V31.736h16.335ZM178.905 66.997l-13.749 2.294c-4.213.675-7.558 3.235-7.558 8.357 0 3.91 2.601 7.685 7.93 7.685 6.935 0 13.377-3.64 13.377-15.367v-2.969Zm98.548-21.861c-8.308 0-15.98 6.155-15.98 18.335 0 12.05 7.672 18.337 15.98 18.337 8.312 0 15.98-6.155 15.98-18.337 0-12.18-7.668-18.335-15.98-18.335ZM433.613 0c5.779 0 10.298 4.772 10.298 10.71 0 5.675-4.52 10.447-10.298 10.447-5.654 0-10.298-4.772-10.298-10.448C423.315 4.772 427.959 0 433.613 0Z"/><path d="M74.257 96.434H14.614C6.543 96.434 0 89.891 0 81.821c0-8.073 6.542-14.617 14.614-14.622l33.796-.017a15.54 15.54 0 0 1 13.473 7.781l12.374 21.471Z" fill="#1E6EFA"/><path d="M11.071 58.962 40.893 7.31C44.93.32 53.866-2.075 60.856 1.96c6.99 4.036 9.388 12.974 5.355 19.967L49.328 51.203a15.542 15.542 0 0 1-13.475 7.778l-24.782-.019Z" fill="#FF3C5A"/><path d="m75.208 22.978 29.821 51.653c4.036 6.99 1.641 15.927-5.349 19.963-6.99 4.036-15.93 1.643-19.969-5.346L62.8 59.988A15.543 15.543 0 0 1 62.8 44.43l12.407-21.452Z" fill="#FFC5CE"/></svg>
